Origami/24x24/apps/zandronum.svg

<svg width="24" height="24" version="1.1" viewBox="0 0 24 24" xmlns="http://www.w3.org/2000/svg">
 <path d="m3.0025731 8.6933593v3.8066407c0 0.844965-0.067831 2.299504 0.493023 2.976562 0.9328646 1.55065 2.9319178 4.906287 3.6991378 6.442383 0.250389 0.459438 0.8061094 0.581054 1.5073809 0.581055h3.2978852 3.297885c0.701272-1e-6 1.256992-0.121617 1.507381-0.581055 0.76722-1.536096 2.766273-4.891733 3.699138-6.442383 0.560853-0.677058 0.493023-2.131597 0.493023-2.976562v-3.8066407c0-3.1933594-3.998857-6.1933593-8.997427-6.1933593-4.9985706 0-8.9974269 2.9999999-8.9974269 6.1933593z" style="opacity:.2"/>
 <path d="m3.0025731 8.1933593v3.8066407c0 0.844965-0.067831 2.299504 0.493023 2.976562 0.9328646 1.55065 2.9319178 4.906287 3.6991378 6.442383 0.250389 0.459438 0.8061094 0.581054 1.5073809 0.581055h3.2978852 3.297885c0.701272-1e-6 1.256992-0.121617 1.507381-0.581055 0.76722-1.536096 2.766273-4.891733 3.699138-6.442383 0.560853-0.677058 0.493023-2.131597 0.493023-2.976562v-3.8066407c0-3.1933594-3.998857-6.1933593-8.997427-6.1933593-4.9985706 0-8.9974269 2.9999999-8.9974269 6.1933593z" style="fill:#6e6e6e"/>
 <path d="m4.2597656 11.974609c-0.5830255 0.004002-1.1671817 0.011696-1.2578125 0.025391v0.5c0 0.07382 5.827e-4 0.171706 0 0.253906 0.0084776 0.791635 0.0781571 1.720485 0.4941407 2.222656 0.9328646 1.55065 2.9319987 4.905311 3.6992187 6.441407 0.250389 0.459438 0.8045879 0.58203 1.5058594 0.582031h3.2988281 3.298828c0.701272-1e-6 1.255471-0.122593 1.50586-0.582031 0.767219-1.536096 2.766353-4.890757 3.699218-6.441407 0.412005-0.497369 0.48455-1.412586 0.494141-2.199218-6.44e-4 -0.090533-0.001953-0.196708-0.001953-0.277344v-0.5c-0.104854 6e-6 -2.191528 0.002913-2.283203 0.007812-1.366174 0.073221-1.876361 0.69498-2.712891 1.992188-0.784915 1.344642-0.859827 3.522326-1.251953 4.5-0.551882-1.886919-0.248047-5.5-2.748047-5.5-2.5000002 0-2.1961649 3.613081-2.7480469 5.5-0.392126-0.977674-0.4670386-3.155358-1.2519531-4.5-0.5433849-0.913308-1.3021491-1.948372-2.4941406-2.023438-0.080372-0.0051-0.6617098-0.006053-1.2460938-0.001953z" style="opacity:.2"/>
 <path d="m4.9999999 11.5v1c1.490035-0.231421 2.3833375 0.963529 2.9999999 2 0.7849145 1.344642 0.859827 3.522326 1.251953 4.5 0.551882-1.886919 0.248047-5.5 2.7480472-5.5 2.5 0 2.196165 3.613081 2.748047 5.5 0.392126-0.977674 0.467038-3.155358 1.251953-4.5 0.892736-1.384366 1.413547-2 3-2v-1h-7z" style="opacity:.2"/>
 <path d="m4.9999999 11v1c1.490035-0.231421 2.3833375 0.963529 2.9999999 2 0.7849145 1.344642 0.859827 3.522326 1.251953 4.5 0.551882-1.886919 0.248047-5.5 2.7480472-5.5 2.5 0 2.196165 3.613081 2.748047 5.5 0.392126-0.977674 0.467038-3.155358 1.251953-4.5 0.892736-1.384366 1.413547-2 3-2v-1h-7z" style="fill:#7ac4eb"/>
 <path d="m12 2c-4.9985706 0-8.9970704 2.9999998-8.9970704 6.1933593v0.5c0-3.1933594 3.9984998-6.1933593 8.9970704-6.1933593 4.99857 0 8.99707 2.9999999 8.99707 6.1933593v-0.5c0-3.1933595-3.9985-6.1933593-8.99707-6.1933593zm-8.9970704 10.921875c0 0.220189-0.00311 0.41766 0 0.603515 2.07e-4 -0.03637 0-0.06595 0-0.103515v-0.5zm17.99414 0v0.5c0 0.03757-2.07e-4 0.06714 0 0.103515 0.0031-0.185855 0-0.383326 0-0.603515z" style="fill:#ffffff;opacity:.1"/>
 <path d="m4.9999999 11v0.5h7.0000001 7v-0.5h-7-7.0000001z" style="fill:#ffffff;opacity:.1"/>
 <path d="m12 13c-2.5000002 0-2.1961649 3.613081-2.7480469 5.5l-0.4824219 3.5h3.2304688 3.228516l-0.480469-3.5c-0.551882-1.886919-0.248047-5.5-2.748047-5.5z" style="opacity:.15"/>
</svg>

<svg xmlns="http://www.w3.org/2000/svg" width="24" height="24" version="1.1" viewBox="0 0 24 24">
 <path style="opacity:0.2" d="m 3.0025731,8.6933593 0,3.8066407 c 0,0.844965 -0.067831,2.299504 0.493023,2.976562 0.9328646,1.55065 2.9319178,4.906287 3.6991378,6.442383 0.250389,0.459438 0.8061094,0.581054 1.5073809,0.581055 L 12,22.5 l 3.297885,0 c 0.701272,-1e-6 1.256992,-0.121617 1.507381,-0.581055 0.76722,-1.536096 2.766273,-4.891733 3.699138,-6.442383 0.560853,-0.677058 0.493023,-2.131597 0.493023,-2.976562 l 0,-3.8066407 C 20.997427,5.4999999 16.99857,2.5 12,2.5 7.0014294,2.5 3.0025731,5.4999999 3.0025731,8.6933593 Z"/>
 <path style="fill:#6e6e6e" d="m 3.0025731,8.1933593 0,3.8066407 c 0,0.844965 -0.067831,2.299504 0.493023,2.976562 0.9328646,1.55065 2.9319178,4.906287 3.6991378,6.442383 C 7.4451229,21.878383 8.0008433,21.999999 8.7021148,22 L 12,22 l 3.297885,0 c 0.701272,-1e-6 1.256992,-0.121617 1.507381,-0.581055 0.76722,-1.536096 2.766273,-4.891733 3.699138,-6.442383 C 21.065257,14.299504 20.997427,12.844965 20.997427,12 l 0,-3.8066407 C 20.997427,4.9999999 16.99857,2 12,2 7.0014294,2 3.0025731,4.9999999 3.0025731,8.1933593 Z"/>
 <path style="opacity:0.2" d="M 4.2597656 11.974609 C 3.6767401 11.978611 3.0925839 11.986305 3.0019531 12 L 3.0019531 12.5 C 3.0019531 12.57382 3.0025358 12.671706 3.0019531 12.753906 C 3.0104307 13.545541 3.0801102 14.474391 3.4960938 14.976562 C 4.4289584 16.527212 6.4280925 19.881873 7.1953125 21.417969 C 7.4457015 21.877407 7.9999004 21.999999 8.7011719 22 L 12 22 L 15.298828 22 C 16.0001 21.999999 16.554299 21.877407 16.804688 21.417969 C 17.571907 19.881873 19.571041 16.527212 20.503906 14.976562 C 20.915911 14.479193 20.988456 13.563976 20.998047 12.777344 C 20.997403 12.686811 20.996094 12.580636 20.996094 12.5 L 20.996094 12 C 20.89124 12.000006 18.804566 12.002913 18.712891 12.007812 C 17.346717 12.081033 16.83653 12.702792 16 14 C 15.215085 15.344642 15.140173 17.522326 14.748047 18.5 C 14.196165 16.613081 14.5 13 12 13 C 9.4999998 13 9.8038351 16.613081 9.2519531 18.5 C 8.8598271 17.522326 8.7849145 15.344642 8 14 C 7.4566151 13.086692 6.6978509 12.051628 5.5058594 11.976562 C 5.4254874 11.971462 4.8441496 11.970509 4.2597656 11.974609 z"/>
 <path style="opacity:0.2" d="m 4.9999999,11.5 0,1 c 1.490035,-0.231421 2.3833375,0.963529 2.9999999,2 0.7849145,1.344642 0.859827,3.522326 1.251953,4.5 C 9.8038348,17.113081 9.4999998,13.5 12,13.5 c 2.5,0 2.196165,3.613081 2.748047,5.5 0.392126,-0.977674 0.467038,-3.155358 1.251953,-4.5 0.892736,-1.384366 1.413547,-2 3,-2 l 0,-1 -7,0 z"/>
 <path style="fill:#7ac4eb" d="m 4.9999999,11 0,1 c 1.490035,-0.231421 2.3833375,0.963529 2.9999999,2 0.7849145,1.344642 0.859827,3.522326 1.251953,4.5 C 9.8038348,16.613081 9.4999998,13 12,13 c 2.5,0 2.196165,3.613081 2.748047,5.5 C 15.140173,17.522326 15.215085,15.344642 16,14 c 0.892736,-1.384366 1.413547,-2 3,-2 l 0,-1 -7,0 z"/>
 <path style="opacity:0.1;fill:#ffffff" d="M 12,2 C 7.0014294,2 3.0029296,4.9999998 3.0029296,8.1933593 l 0,0.5 C 3.0029296,5.4999999 7.0014294,2.5 12,2.5 c 4.99857,0 8.99707,2.9999999 8.99707,6.1933593 l 0,-0.5 C 20.99707,4.9999998 16.99857,2 12,2 Z M 3.0029296,12.921875 c 0,0.220189 -0.00311,0.41766 0,0.603515 2.07e-4,-0.03637 0,-0.06595 0,-0.103515 l 0,-0.5 z m 17.9941404,0 0,0.5 c 0,0.03757 -2.07e-4,0.06714 0,0.103515 0.0031,-0.185855 0,-0.383326 0,-0.603515 z"/>
 <path style="opacity:0.1;fill:#ffffff" d="m 4.9999999,11 0,0.5 7.0000001,0 7,0 0,-0.5 -7,0 -7.0000001,0 z"/>
 <path style="opacity:0.15" d="M 12 13 C 9.4999998 13 9.8038351 16.613081 9.2519531 18.5 L 8.7695312 22 L 12 22 L 15.228516 22 L 14.748047 18.5 C 14.196165 16.613081 14.5 13 12 13 z"/>
</svg>
